X: 14
T:Bonnets So Blue, Brackley
M:6/8
L:1/8
A:Brackley
P:A
K:G
P:A
D|
G2G B>cd|D3-  D2D|G2e  d>BG|A3-A2D|
G2G G>AB|c>cc e2e|d>cB A>GF|G3-G2||
